!!!COM: Music21
!!!OTL: Pasacorredoiras do Condado
!!!OMV: pezas_pasacorredoiras_pasacorredoiras-do-condado_pasacorredoiras-do-condado-partitura.musicxml
**kern
*I"Bagpipes
*I'Bag
*clefG^2
*k[]
*M2/4
=1
!LO:TX:a:t=Andante
*MM96
!LO:TX:a:t=[quarter]=96
4.r
16eeLL
16ffJJ
=||
8ggL
16cccL
16bbJJ
16dddLL
16ccc
16bb
16aaJJ
=
16aaLL
16gg
16ff
16aaJJ
8ggL
16ggL
16ffJJ
=
16aaLL
16gg
16ff
16eeJJ
8ddL
16ffL
16eeJJ
=
16ggLL
16ff
16ee
16ddJJ
16ccLL
16dd
16ee
16ffJJ
=
8ggL
16cccL
16bbJJ
16dddLL
16ccc
16bb
16aaJJ
!!linebreak:original
=
16aaLL
16gg
16ff
16aaJJ
8ggL
16ggL
16aaJJ
=
16bbLL
16ccc
16ddd
16cccJJ
16bbLL
16gg
16aa
16bbJJ
=
16cccLL
16gg
16ee
16ggJJ
8ccL
16eeL
16ffJJ
=||
8ggL
16cccL
16bbJJ
16dddLL
16ccc
16bb
16aaJJ
=
16aaLL
16gg
16ff
16aaJJ
8ggL
16ggL
16ffJJ
=
16aaLL
16gg
16ff
16eeJJ
8ddL
16ffL
16eeJJ
!!linebreak:original
=
16ggLL
16ff
16ee
16ddJJ
16ccLL
16dd
16ee
16ffJJ
=
8ggL
16cccL
16bbJJ
16dddLL
16ccc
16bb
16aaJJ
!!linebreak:original
=
16aaLL
16gg
16ff
16aaJJ
8ggL
16ggL
16aaJJ
=
16bbLL
16ccc
16ddd
16cccJJ
16bbLL
16gg
16aa
16bbJJ
=
16cccLL
16gg
16ee
16ggJJ
8ccL
16ffL
16ggJJ
=||
16aaLL
16ccc
16ccc
16cccJJ
16aaLL
16ccc
16ccc
16cccJJ
=
16ggLL
16ccc
16bb
16cccJJ
16ggLL
16ccc
16bb
16cccJJ
!!linebreak:original
=
16ffLL
16aa
16aa
16aaJJ
16ffLL
16aa
16aa
16aaJJ
=
16eeLL
16dd
16ee
16ffJJ
16ggLL
16ee
16ff
16ggJJ
=
16aaLL
16ccc
16ccc
16cccJJ
16aaLL
16ccc
16ccc
16cccJJ
=
16ggLL
16ccc
16bb
16cccJJ
16ggLL
16ccc
16bb
16cccJJ
=
16aaLL
16gg
16ff
16eeJJ
16ddLL
16cc
16b
16ddJJ
=
8ccL
16eeL
16ggJJ
8cccL
16ffL
16ggJJ
!!linebreak:original
=||
16aaLL
16ccc
16ccc
16cccJJ
16aaLL
16ccc
16ccc
16cccJJ
=
16ggLL
16ccc
16bb
16cccJJ
16ggLL
16ccc
16bb
16cccJJ
!!linebreak:original
=
16ffLL
16aa
16aa
16aaJJ
16ffLL
16aa
16aa
16aaJJ
=
16eeLL
16dd
16ee
16ffJJ
16ggLL
16ee
16ff
16ggJJ
=
16aaLL
16ccc
16ccc
16cccJJ
16aaLL
16ccc
16ccc
16cccJJ
=
16ggLL
16ccc
16bb
16cccJJ
16ggLL
16ccc
16bb
16cccJJ
=
16aaLL
16gg
16ff
16eeJJ
16ddLL
16cc
16b
16ddJJ
!!linebreak:original
=
8ccL
16eeL
16ggJJ
8cccL
16eeL
16ffJJ
==
*-
